assets/img/braze_icons/hard-drive.svg

<svg fill="none" height="24" viewBox="0 0 24 24" width="24" xmlns="http://www.w3.org/2000/svg"><g fill="#801ed7"><path d="m8.81413 2.99982c-.9277-.00063-1.62707-.0011-2.26427.21869-.5605.19333-1.07101.50884-1.49459.92371-.48155.47164-.7939 1.09739-1.20822 1.92742-.63342 1.26689-1.29227 2.52473-1.91722 3.79723-.18124.36903-.27186.55353-.24815.70863.0205.1342.0972.2573.20857.3348.12877.0897.33672.0897.75262.0897h18.71433c.4159 0 .6239 0 .7526-.0897.1114-.0775.1881-.2006.2086-.3348.0237-.1551-.0669-.3396-.2482-.70864-.6249-1.27249-1.2837-2.53033-1.9172-3.7972-.4143-.83005-.7266-1.4558-1.2082-1.92744-.4236-.41487-.9341-.73038-1.4946-.92371-.6372-.21979-1.3366-.21932-2.2643-.21869z"/><path clip-rule="evenodd" d="m23.0001 14.5996c0-.5597 0-.8396-.1089-1.0535-.0959-.1882-.2489-.3412-.4371-.4371-.2139-.109-.4938-.109-1.0537-.109h-18.80078c-.55984 0-.83977 0-1.05369.109-.18813.0959-.34117.2489-.43702.4371-.108985.2139-.108959.4938-.10891 1.0535.00002.2139.00004.4277.00004.6416-.00001.805-.00002 1.4693.04419 2.0105.04593.5621.14449 1.0788.39178 1.5642.3835.7526.99542 1.3645 1.74807 1.748.48533.2473 1.00204.3459 1.56413.3918.54119.0442 1.20555.0442 2.01051.0442h10.48268c.8049 0 1.4693 0 2.0105-.0442.5621-.0459 1.0788-.1445 1.5641-.3918.7527-.3835 1.3646-.9954 1.7481-1.748.2473-.4854.3458-1.0021.3917-1.5642.0443-.5412.0443-1.2055.0442-2.0105 0-.2138.0001-.4277.0001-.6416zm-17.00008.4004c-.55229 0-1 .4477-1 1s.44771 1 1 1h3.99998c.5523 0 1-.4477 1-1s-.4477-1-1-1z" fill-rule="evenodd"/></g></svg>

<svg width="24" height="24" viewBox="0 0 24 24" fill="none" xmlns="http://www.w3.org/2000/svg">
<path d="M8.81413 2.99982C7.88643 2.99919 7.18706 2.99872 6.54986 3.21851C5.98936 3.41184 5.47885 3.72735 5.05527 4.14222C4.57372 4.61386 4.26137 5.23961 3.84705 6.06964C3.21363 7.33653 2.55478 8.59437 1.92983 9.86687C1.74859 10.2359 1.65797 10.4204 1.68168 10.5755C1.70218 10.7097 1.77888 10.8328 1.89025 10.9103C2.01902 11 2.22697 11 2.64287 11H21.3572C21.7731 11 21.9811 11 22.1098 10.9103C22.2212 10.8328 22.2979 10.7097 22.3184 10.5755C22.3421 10.4204 22.2515 10.2359 22.0702 9.86686C21.4453 8.59437 20.7865 7.33653 20.153 6.06966C19.7387 5.23961 19.4264 4.61386 18.9448 4.14222C18.5212 3.72735 18.0107 3.41184 17.4502 3.21851C16.813 2.99872 16.1136 2.99919 15.1859 2.99982H8.81413Z" fill="#801ED7"/>
<path fill-rule="evenodd" clip-rule="evenodd" d="M23.0001 14.5996C23.0001 14.0399 23.0001 13.76 22.8912 13.5461C22.7953 13.3579 22.6423 13.2049 22.4541 13.109C22.2402 13 21.9603 13 21.4004 13H2.59962C2.03978 13 1.75985 13 1.54593 13.109C1.3578 13.2049 1.20476 13.3579 1.10891 13.5461C0.999925 13.76 0.999951 14.0399 1 14.5996C1.00002 14.8135 1.00004 15.0273 1.00004 15.2412C1.00003 16.0462 1.00002 16.7105 1.04423 17.2517C1.09016 17.8138 1.18872 18.3305 1.43601 18.8159C1.81951 19.5685 2.43143 20.1804 3.18408 20.5639C3.66941 20.8112 4.18612 20.9098 4.74821 20.9557C5.2894 20.9999 5.95376 20.9999 6.75872 20.9999H17.2414C18.0463 20.9999 18.7107 20.9999 19.2519 20.9557C19.814 20.9098 20.3307 20.8112 20.816 20.5639C21.5687 20.1804 22.1806 19.5685 22.5641 18.8159C22.8114 18.3305 22.9099 17.8138 22.9558 17.2517C23.0001 16.7105 23.0001 16.0462 23 15.2412C23 15.0274 23.0001 14.8135 23.0001 14.5996ZM6.00002 15C5.44773 15 5.00002 15.4477 5.00002 16C5.00002 16.5523 5.44773 17 6.00002 17H10C10.5523 17 11 16.5523 11 16C11 15.4477 10.5523 15 10 15H6.00002Z" fill="#801ED7"/>
</svg>
